packages/icons/src/restore-cache-s3-ci-step-inverse.svg

<svg fill="none" viewBox="0 0 40 40" xmlns="http://www.w3.org/2000/svg"><path d="m33.7949 36.1154 5.205 1.2621.0082-.0131-.0002-9.7532-.0082-.0087-5.2048 1.2602z" fill="#d9dae6"/><path d="m36.0652 35.6552-2.2702-.4165-2.2696.4165 2.2668.6328z" fill="#f3f3fa"/><path clip-rule="evenodd" d="m36.065 29.345-2.2701-.5617v-3.7833l2.2701 1.1349zm-7.4752 8.0297 5.3507-1.2736v-1.7236l2.1245-.2704v-3.2098l-2.1245-.2665v-1.7824l-5.3507-1.2459zm7.4751 1.4906-2.27 1.1346v-3.7831l2.27-.5614zm3.9351-10.7628-1.0002-.5v9.7749l1.0002-.4997z" fill="#fff" fill-rule="evenodd"/><path clip-rule="evenodd" d="m31.525 29.345 2.2696-.5617.0184-.0057v-3.7625l-.0184-.0151-2.2696 1.1349zm-3.9352-1.2425.9998-.5.006.0069v9.7581l-.006.0072-.9998-.497zm6.2048 6.2935-2.2696-.2889v-3.2098l2.2696-.2848.027.0291-.0127 3.7215zm-2.2698 4.4694 2.2698 1.1346.0244-.0655.009-3.6797-.0334-.0379-2.2698-.5615z" fill="#d9dae6" fill-rule="evenodd"/><path d="m36.0652 29.345-2.2702.4137-2.2696-.4137 2.2667-.5942z" fill="#b0b1c4"/><path clip-rule="evenodd" d="m16.1224 7.22056c.737-1.18397 2.0612-1.97324 3.5714-1.97324 2.3133 0 4.1885 1.85125 4.1885 4.13489 0 2.28359-1.8752 4.13489-4.1885 4.13489-1.2801 0-2.4257-.5663-3.1948-1.4607l-.2222-.2823c-.0584-.0811-.1139-.1644-.1663-.2497l-.1584-.2817c-.0472-.0923-.0909-.1865-.1311-.2826-.1055-.252-.398-.3718-.6532-.2677-.2553.1041-.3767.3928-.2713.6448.0513.1226.1073.2427.1677.3602.0578.1125.1197.2226.1855.33.0687.1124.1418.222.2188.3285.0822.1136.169.2238.2601.3302.951 1.1114 2.3747 1.8184 3.9652 1.8184 2.8657 0 5.1887-2.2933 5.1887-5.12229 0-2.82898-2.323-5.12232-5.1887-5.12232-1.92 0-3.5956 1.0292-4.493 2.55873l-.3015-.75428c-.1013-.25364-.3918-.37812-.6487-.27804-.257.10008-.3831.38683-.2817.64047l.7483 1.87196c.0486.12181.1443.21953.266.27167s.2593.05443.3827.00637l1.8963-.73869c.2569-.10009.383-.38684.2816-.64047-.1013-.25364-.3918-.37812-.6487-.27804zm10.7982 5.20594c-.2646-.078-.5433.0705-.6223.3318-.0791.2613.0714.5363.3361.6143 1.1079.3267 1.9778.7245 2.5594 1.152.59.4336.806.8361.806 1.1702 0 .3013-.1739.6569-.6455 1.0455-.4688.3863-1.1771.7563-2.0963 1.0767-1.8338.6392-4.3998 1.0437-7.258 1.0437s-5.4242-.4045-7.258-1.0437c-.9192-.3204-1.6275-.6904-2.0963-1.0767-.4716-.3886-.6455-.7442-.6455-1.0455 0-.3249.2038-.7142.7596-1.1355.5493-.4164 1.3729-.807 2.4274-1.1328.2636-.0814.4104-.3584.3279-.6186-.0825-.2603-.3631-.4052-.6267-.3238-1.1155.3447-2.0607.7787-2.7378 1.292-.67047.5082-1.1506 1.1534-1.1506 1.9187v13.4118c0 .7093.41373 1.3164 1.0048 1.8035.5938.4893 1.4232.9078 2.4042 1.2497 1.9664.6854 4.6502 1.1001 7.591 1.1001.7089 0 1.402-.0241 2.073-.0701.2756-.0189.4834-.2547.4643-.5268-.0192-.272-.258-.4772-.5336-.4583-.6477.0444-1.3177.0678-2.0037.0678-2.8582 0-5.4242-.4046-7.258-1.0438-.9192-.3203-1.6275-.6904-2.0963-1.0767-.4716-.3886-.6455-.7442-.6455-1.0454v-5.0116l.0046.0038c.5938.4893 1.4232.9079 2.4042 1.2498 1.9664.6853 4.6502 1.1 7.591 1.1 2.9407 0 5.6246-.4147 7.591-1.1.981-.3419 1.8104-.7605 2.4042-1.2498l.0046-.0038v.3022c0 .2727.2239.4937.5001.4937s.5001-.221.5001-.4937v-8.7024c0-.7867-.5068-1.4462-1.2089-1.9622-.7103-.5221-1.7016-.9615-2.8705-1.3061zm3.0746 5.0718.0046-.0037v4.8007c0 .3012-.1739.6568-.6455 1.0454-.4688.3864-1.1771.7564-2.0963 1.0768-1.8338.6391-4.3998 1.0437-7.258 1.0437s-5.4242-.4046-7.258-1.0437c-.9192-.3204-1.6275-.6904-2.0963-1.0768-.4716-.3886-.6455-.7442-.6455-1.0454v-4.8007l.0046.0037c.5938.4894 1.4232.9079 2.4042 1.2498 1.9664.6854 4.6502 1.1001 7.591 1.1001 2.9407 0 5.6246-.4147 7.591-1.1001.981-.3419 1.8104-.7604 2.4042-1.2498zm-17.5578 3.4607c0 .3393-.2786.6143-.6223.6143-.3436 0-.6222-.275-.6222-.6143 0-.3392.2786-.6143.6222-.6143.3437 0 .6223.2751.6223.6143zm0 6.7876c0 .3392-.2786.6142-.6223.6142-.3436 0-.6222-.275-.6222-.6142 0-.3393.2786-.6143.6222-.6143.3437 0 .6223.275.6223.6143z" fill="#fff" fill-rule="evenodd"/></svg>

<svg viewBox="0 0 40 40" fill="none" xmlns="http://www.w3.org/2000/svg">
<path d="M33.7949 36.1154L38.9999 37.3775L39.0081 37.3644L39.0079 27.6112L38.9997 27.6025L33.7949 28.8627V36.1154Z" fill="#D9DAE6"/>
<path d="M36.0652 35.6552L33.795 35.2387L31.5254 35.6552L33.7922 36.288L36.0652 35.6552Z" fill="#F3F3FA"/>
<path fill-rule="evenodd" clip-rule="evenodd" d="M36.065 29.345L33.7949 28.7833V25L36.065 26.1349V29.345ZM28.5898 37.3747L33.9405 36.1011V34.3775L36.065 34.1071V30.8973L33.9405 30.6308V28.8484L28.5898 27.6025V37.3747ZM36.0649 38.8653L33.7949 39.9999V36.2168L36.0649 35.6554V38.8653ZM40 28.1025L38.9998 27.6025V37.3774L40 36.8777V28.1025Z" fill="white"/>
<path fill-rule="evenodd" clip-rule="evenodd" d="M31.525 29.345L33.7946 28.7833L33.813 28.7776V25.0151L33.7946 25L31.525 26.1349V29.345ZM27.5898 28.1025L28.5896 27.6025L28.5956 27.6094V37.3675L28.5896 37.3747L27.5898 36.8777V28.1025ZM33.7946 34.396L31.525 34.1071V30.8973L33.7946 30.6125L33.8216 30.6416L33.8089 34.3631L33.7946 34.396ZM31.5248 38.8654L33.7946 40L33.819 39.9345L33.828 36.2548L33.7946 36.2169L31.5248 35.6554V38.8654Z" fill="#D9DAE6"/>
<path d="M36.0652 29.345L33.795 29.7587L31.5254 29.345L33.7921 28.7508L36.0652 29.345Z" fill="#B0B1C4"/>
<path fill-rule="evenodd" clip-rule="evenodd" d="M16.1224 7.22056C16.8594 6.03659 18.1836 5.24732 19.6938 5.24732C22.0071 5.24732 23.8823 7.09857 23.8823 9.38221C23.8823 11.6658 22.0071 13.5171 19.6938 13.5171C18.4137 13.5171 17.2681 12.9508 16.499 12.0564L16.2768 11.7741C16.2184 11.693 16.1629 11.6097 16.1105 11.5244L15.9521 11.2427C15.9049 11.1504 15.8612 11.0562 15.821 10.9601C15.7155 10.7081 15.423 10.5883 15.1678 10.6924C14.9125 10.7965 14.7911 11.0852 14.8965 11.3372C14.9478 11.4598 15.0038 11.5799 15.0642 11.6974C15.122 11.8099 15.1839 11.92 15.2497 12.0274C15.3184 12.1398 15.3915 12.2494 15.4685 12.3559C15.5507 12.4695 15.6375 12.5797 15.7286 12.6861C16.6796 13.7975 18.1033 14.5045 19.6938 14.5045C22.5595 14.5045 24.8825 12.2112 24.8825 9.38221C24.8825 6.55323 22.5595 4.25989 19.6938 4.25989C17.7738 4.25989 16.0982 5.28909 15.2008 6.81862L14.8993 6.06434C14.798 5.8107 14.5075 5.68622 14.2506 5.7863C13.9936 5.88638 13.8675 6.17313 13.9689 6.42677L14.7172 8.29873C14.7658 8.42054 14.8615 8.51826 14.9832 8.5704C15.1049 8.62254 15.2425 8.62483 15.3659 8.57677L17.2622 7.83808C17.5191 7.73799 17.6452 7.45124 17.5438 7.19761C17.4425 6.94397 17.152 6.81949 16.8951 6.91957L16.1224 7.22056ZM26.9206 12.4265C26.656 12.3485 26.3773 12.497 26.2983 12.7583C26.2192 13.0196 26.3697 13.2946 26.6344 13.3726C27.7423 13.6993 28.6122 14.0971 29.1938 14.5246C29.7838 14.9582 29.9998 15.3607 29.9998 15.6948C29.9998 15.9961 29.8259 16.3517 29.3543 16.7403C28.8855 17.1266 28.1772 17.4966 27.258 17.817C25.4242 18.4562 22.8582 18.8607 20 18.8607C17.1418 18.8607 14.5758 18.4562 12.742 17.817C11.8228 17.4966 11.1145 17.1266 10.6457 16.7403C10.1741 16.3517 10.0002 15.9961 10.0002 15.6948C10.0002 15.3699 10.204 14.9806 10.7598 14.5593C11.3091 14.1429 12.1327 13.7523 13.1872 13.4265C13.4508 13.3451 13.5976 13.0681 13.5151 12.8079C13.4326 12.5476 13.152 12.4027 12.8884 12.4841C11.7729 12.8288 10.8277 13.2628 10.1506 13.7761C9.48013 14.2843 9 14.9295 9 15.6948V29.1066C9 29.8159 9.41373 30.423 10.0048 30.9101C10.5986 31.3994 11.428 31.8179 12.409 32.1598C14.3754 32.8452 17.0592 33.2599 20 33.2599C20.7089 33.2599 21.402 33.2358 22.073 33.1898C22.3486 33.1709 22.5564 32.9351 22.5373 32.663C22.5181 32.391 22.2793 32.1858 22.0037 32.2047C21.356 32.2491 20.686 32.2725 20 32.2725C17.1418 32.2725 14.5758 31.8679 12.742 31.2287C11.8228 30.9084 11.1145 30.5383 10.6457 30.152C10.1741 29.7634 10.0002 29.4078 10.0002 29.1066V24.095L10.0048 24.0988C10.5986 24.5881 11.428 25.0067 12.409 25.3486C14.3754 26.0339 17.0592 26.4486 20 26.4486C22.9407 26.4486 25.6246 26.0339 27.591 25.3486C28.572 25.0067 29.4014 24.5881 29.9952 24.0988L29.9998 24.095V24.3972C29.9998 24.6699 30.2237 24.8909 30.4999 24.8909C30.7761 24.8909 31 24.6699 31 24.3972V15.6948C31 14.9081 30.4932 14.2486 29.7911 13.7326C29.0808 13.2105 28.0895 12.7711 26.9206 12.4265ZM29.9952 17.4983L29.9998 17.4946V22.2953C29.9998 22.5965 29.8259 22.9521 29.3543 23.3407C28.8855 23.7271 28.1772 24.0971 27.258 24.4175C25.4242 25.0566 22.8582 25.4612 20 25.4612C17.1418 25.4612 14.5758 25.0566 12.742 24.4175C11.8228 24.0971 11.1145 23.7271 10.6457 23.3407C10.1741 22.9521 10.0002 22.5965 10.0002 22.2953V17.4946L10.0048 17.4983C10.5986 17.9877 11.428 18.4062 12.409 18.7481C14.3754 19.4335 17.0592 19.8482 20 19.8482C22.9407 19.8482 25.6246 19.4335 27.591 18.7481C28.572 18.4062 29.4014 17.9877 29.9952 17.4983ZM12.4374 20.959C12.4374 21.2983 12.1588 21.5733 11.8151 21.5733C11.4715 21.5733 11.1929 21.2983 11.1929 20.959C11.1929 20.6198 11.4715 20.3447 11.8151 20.3447C12.1588 20.3447 12.4374 20.6198 12.4374 20.959ZM12.4374 27.7466C12.4374 28.0858 12.1588 28.3608 11.8151 28.3608C11.4715 28.3608 11.1929 28.0858 11.1929 27.7466C11.1929 27.4073 11.4715 27.1323 11.8151 27.1323C12.1588 27.1323 12.4374 27.4073 12.4374 27.7466Z" fill="white"/>
</svg>
